svg/skype.svg

<svg xmlns="http://www.w3.org/2000/svg" viewBox="0 0 24 24"><path d="M18 6c2.07 2.04 2.85 4.89 2.36 7.55.41.72.64 1.56.64 2.45a5 5 0 0 1-5 5c-.89 0-1.73-.23-2.45-.64-2.66.49-5.51-.29-7.55-2.36-2.07-2.04-2.85-4.89-2.36-7.55C3.23 9.73 3 8.89 3 8a5 5 0 0 1 5-5c.89 0 1.73.23 2.45.64 2.66-.49 5.51.29 7.55 2.36m-5.96 11.16c2.87 0 4.3-1.38 4.3-3.24 0-1.19-.56-2.46-2.73-2.95l-1.99-.44c-.76-.17-1.62-.4-1.62-1.11 0-.72.6-1.22 1.7-1.22 2.23 0 2.02 1.53 3.13 1.53.58 0 1.08-.34 1.08-.93 0-1.37-2.19-2.4-4.05-2.4-2.01 0-4.16.86-4.16 3.14 0 1.1.39 2.27 2.55 2.81l2.69.68c.81.2 1.01.65 1.01 1.07 0 .68-.68 1.35-1.91 1.35-2.41 0-2.08-1.85-3.37-1.85-.58 0-1 .4-1 .97 0 1.11 1.33 2.59 4.37 2.59"/></svg>

<?xml version="1.0" encoding="UTF-8"?><!DOCTYPE svg PUBLIC "-//W3C//DTD SVG 1.1//EN" "http://www.w3.org/Graphics/SVG/1.1/DTD/svg11.dtd"><svg xmlns="http://www.w3.org/2000/svg" xmlns:xlink="http://www.w3.org/1999/xlink" version="1.1" id="mdi-skype" width="24" height="24" viewBox="0 0 24 24"><path d="M18,6C20.07,8.04 20.85,10.89 20.36,13.55C20.77,14.27 21,15.11 21,16A5,5 0 0,1 16,21C15.11,21 14.27,20.77 13.55,20.36C10.89,20.85 8.04,20.07 6,18C3.93,15.96 3.15,13.11 3.64,10.45C3.23,9.73 3,8.89 3,8A5,5 0 0,1 8,3C8.89,3 9.73,3.23 10.45,3.64C13.11,3.15 15.96,3.93 18,6M12.04,17.16C14.91,17.16 16.34,15.78 16.34,13.92C16.34,12.73 15.78,11.46 13.61,10.97L11.62,10.53C10.86,10.36 10,10.13 10,9.42C10,8.7 10.6,8.2 11.7,8.2C13.93,8.2 13.72,9.73 14.83,9.73C15.41,9.73 15.91,9.39 15.91,8.8C15.91,7.43 13.72,6.4 11.86,6.4C9.85,6.4 7.7,7.26 7.7,9.54C7.7,10.64 8.09,11.81 10.25,12.35L12.94,13.03C13.75,13.23 13.95,13.68 13.95,14.1C13.95,14.78 13.27,15.45 12.04,15.45C9.63,15.45 9.96,13.6 8.67,13.6C8.09,13.6 7.67,14 7.67,14.57C7.67,15.68 9,17.16 12.04,17.16Z" /></svg>
